Sources/FrostedUI/Resources/Icons.xcassets/playCircle16.imageset/play-circle-16.svg

<svg width="16" height="16" viewBox="0 0 16 16" fill="none" xmlns="http://www.w3.org/2000/svg" data-fui-icon="true">
  <path
    d="M8 1C11.866 1 15 4.13401 15 8C15 11.866 11.866 15 8 15C4.13401 15 1 11.866 1 8C1 4.13401 4.13401 1 8 1ZM8 2.5C4.96243 2.5 2.5 4.96243 2.5 8C2.5 11.0376 4.96243 13.5 8 13.5C11.0376 13.5 13.5 11.0376 13.5 8C13.5 4.96243 11.0376 2.5 8 2.5ZM5.75 5.96484C5.75008 5.01468 6.75469 4.4347 7.5625 4.84766L7.7207 4.94336L10.6035 6.97852C11.309 7.47654 11.309 8.52346 10.6035 9.02148L7.7207 11.0566C6.89274 11.6408 5.75009 11.0485 5.75 10.0352V5.96484ZM7.25 9.55176L9.44922 8L7.25 6.44727V9.55176Z"
    fill="currentColor"
  />
</svg>

<svg xmlns="http://www.w3.org/2000/svg" width="16" height="16" fill="none" data-fui-icon="true" viewBox="0 0 16 16"><path fill="currentColor" d="M8 1a7 7 0 1 1 0 14A7 7 0 0 1 8 1m0 1.5a5.5 5.5 0 1 0 0 11 5.5 5.5 0 0 0 0-11M5.75 5.965c0-.95 1.005-1.53 1.813-1.117l.158.095 2.883 2.036a1.25 1.25 0 0 1 0 2.042L7.72 11.057a1.25 1.25 0 0 1-1.971-1.022zm1.5 3.587L9.45 8l-2.2-1.553z"/></svg>
